X:1
T:St. Cephas, 11.11.11.11
T:St. Cephas, 11.11.11.11
T:Howard Augustus Crosbie, 1875
T:Public Domain Courtesy of the Cyber Hymnal™
C:Howard Augustus Crosbie, 1875
Z:Public Domain
Z:Courtesy of the Cyber Hymnal™
%%score ( 1 2 ) ( 3 4 )
L:1/8
M:4/4
K:Eb
V:1 treble 
V:2 treble 
V:3 bass 
V:4 bass 
V:1
 [B,E]2 [B,E]2 [B,D]2 [B,F]2 | [B,E]4 [B,D]4 | [DF]2 [^C=E]2 [DF]2 [DA]2 | [EG]8 | %4
 [GB]2 [GB]2 [^Fc]2 [GB]2 | (e3 c) [GB]4 | [DA]2 [EG]2 [CG]2 [CF]2 | [DG]8 | [EG]2 [EG]2 [DF]2 E2 | %9
 [DA]4 [DF]4 | [EG]2 E2 [EG]2 [CF]2 | (E4 D4) | [Dc]2 [EB]2 [FA]2 [EG]2 | [Ee]4 [E=A]4 | %14
 [EB]2 [EG]2 [DF]3 E | E8 |] %16
V:2
 x8 | x8 | x8 | x8 | x8 | A4 x4 | x8 | x8 | x6 E2 | x8 | x2 E2 x4 | B,8 | x8 | x8 | x7 E | E8 |] %16
V:3
 [E,G,]2 [E,G,]2 [F,A,]2 [B,,A,]2 | [E,G,]4 [B,,F,]4 | [B,,B,]2 [B,,B,]2 [B,,B,]2 [B,,B,]2 | %3
 [E,B,]8 | [E,B,]2 [E,B,]2 [E,=A,]2 [E,B,]2 | (C3 D) [E,E]4 | [F,A,]2 [G,B,]2 [A,C]2 [A,,C]2 | %7
 [G,,=B,]8 | [E,B,]2 [E,B,]2 [A,B,]2 [G,B,]2 | [F,B,]4 [B,,B,]4 | %10
 [E,B,]2 [C,C]2 [G,,B,]2 [A,,A,]2 | (G,4 F,4) | [B,,A,]2 [C,G,]2 [D,B,]2 [E,B,]2 | %13
 [F,=A,]4 [^F,C]4 | [G,B,]2 [E,B,]2 [B,,A,]3 [E,G,] | [E,G,]8 |] %16
V:4
 x8 | x8 | x8 | x8 | x8 | E,4 x4 | x8 | x8 | x8 | x8 | x8 | B,,8 | x8 | x8 | x8 | x8 |] %16

